build/images/icon-clear.svg

<svg width="20" height="20" viewBox="0 0 20 20" fill="none" xmlns="http://www.w3.org/2000/svg">
<path opacity="0.3" d="M10.0391 0C4.54648 0 0 4.46836 0 9.96094C0 15.4535 4.54648 20 10.0391 20C15.5316 20 20 15.4535 20 9.96094C20 4.46836 15.5316 0 10.0391 0ZM14.9695 13.234C15.4266 13.691 15.4266 14.4344 14.9695 14.8918C14.516 15.3449 13.7727 15.3523 13.3117 14.8918L10.0391 11.618L6.68789 14.8922C6.23086 15.3492 5.4875 15.3492 5.03008 14.8922C4.57305 14.4352 4.57305 13.6918 5.03008 13.2344L8.30352 9.96094L5.03008 6.6875C4.57305 6.23008 4.57305 5.48672 5.03008 5.02969C5.4875 4.57266 6.23086 4.57266 6.68789 5.02969L10.0391 8.30391L13.3117 5.02969C13.768 4.57344 14.5113 4.57187 14.9695 5.02969C15.4266 5.48672 15.4266 6.23008 14.9695 6.6875L11.6961 9.96094L14.9695 13.234Z" fill="#999999"/>
</svg>

<svg width="20" height="20" fill="none" xmlns="http://www.w3.org/2000/svg"><path opacity=".3" d="M10.04 0C4.545 0 0 4.468 0 9.96 0 15.454 4.546 20 10.04 20 15.531 20 20 15.454 20 9.96 20 4.469 15.532 0 10.04 0zm4.93 13.234a1.173 1.173 0 01-1.658 1.658l-3.273-3.274-3.351 3.274c-.457.457-1.2.457-1.658 0a1.174 1.174 0 010-1.658l3.274-3.273L5.03 6.687a1.174 1.174 0 010-1.657 1.174 1.174 0 011.658 0l3.351 3.274 3.273-3.274a1.174 1.174 0 011.658 0c.457.457.457 1.2 0 1.657l-3.274 3.274 3.274 3.273z" fill="#999"/></svg>
